X:1790
T:Galliard
C:Thoinot Arbeau
B:Arbeau: Orchesographie (1588)
Z:Transcribed by Frank Nordberg - http://www.musicaviva.com
F:http://abc.musicaviva.com/tunes/arbeau-thoinot/arbeau-galliard/arbeau-galliard-1.abc
M:3/2
L:1/2
Q:1/2=180
K:Gdor
BAG|c>BKA|GFE|F>ED|BAG|c>BA/G/|G2 ^F|G2z:|
|:GGG|F/G/A/B/2c|B>AA/G//A//|c3|BBB|A/B/c/B/A/G/|G2^F|G3:|
W:
W:
W:  From Musica Viva - http://www.musicaviva.com
W:  the Internet center for free sheet music downloads.
